src/lib/packages/icons/src/assets/line/location-pin-heart.svg

<svg width="24" height="24" viewBox="0 0 24 24" fill="none" xmlns="http://www.w3.org/2000/svg">
<path d="M12 2.25C7.175 2.25 3.25 6.175 3.25 11C3.25 16.118 7.94699 19.2199 11.055 21.2729L11.584 21.624C11.71 21.708 11.855 21.75 12 21.75C12.145 21.75 12.29 21.708 12.416 21.624L12.945 21.2729C16.053 19.2199 20.75 16.118 20.75 11C20.75 6.175 16.825 2.25 12 2.25ZM12.119 20.021L12 20.1001L11.881 20.021C8.87098 18.033 4.75 15.311 4.75 11C4.75 7.002 8.002 3.75 12 3.75C15.998 3.75 19.25 7.002 19.25 11C19.25 15.311 15.128 18.034 12.119 20.021ZM13.55 7.25C12.858 7.27 12.37 7.50389 12 7.83789C11.628 7.50389 11.107 7.268 10.449 7.25C9.60797 7.254 8.90297 7.574 8.40997 8.177C7.82697 8.889 7.61598 9.918 7.82898 11C8.35398 13.664 11.557 15.1241 11.693 15.1851C11.79 15.2281 11.895 15.25 11.999 15.25C12.103 15.25 12.208 15.2281 12.305 15.1851C12.441 15.1241 15.643 13.664 16.169 11C16.382 9.917 16.171 8.88803 15.588 8.17603C15.097 7.57403 14.392 7.254 13.55 7.25ZM14.698 10.709C14.401 12.212 12.705 13.2759 12 13.6589C11.294 13.2759 9.598 12.213 9.302 10.709C9.177 10.078 9.27802 9.48598 9.57202 9.12598C9.77802 8.87498 10.067 8.751 10.456 8.75C10.457 8.75 10.459 8.75 10.46 8.75C11.04 8.75 11.269 9.32606 11.29 9.38306C11.392 9.68406 11.675 9.88296 11.993 9.88696C12.322 9.90396 12.599 9.68911 12.708 9.39111C12.732 9.32511 12.96 8.74902 13.54 8.74902C13.541 8.74902 13.543 8.74902 13.544 8.74902C13.934 8.75102 14.224 8.874 14.429 9.125C14.722 9.485 14.823 10.077 14.698 10.709Z" fill="currentColor"/>
</svg>

<svg xmlns="http://www.w3.org/2000/svg" width="24" height="24" fill="none"><path fill="currentColor" d="M12 2.25c-4.825 0-8.75 3.925-8.75 8.75 0 5.118 4.697 8.22 7.805 10.273l.529.351a.75.75 0 0 0 .832 0l.529-.351C16.053 19.22 20.75 16.118 20.75 11c0-4.825-3.925-8.75-8.75-8.75Zm.119 17.771-.119.08-.119-.08C8.871 18.033 4.75 15.311 4.75 11c0-3.998 3.252-7.25 7.25-7.25s7.25 3.252 7.25 7.25c0 4.311-4.122 7.034-7.131 9.021ZM13.55 7.25c-.692.02-1.18.254-1.55.588-.372-.334-.893-.57-1.551-.588-.841.004-1.546.324-2.039.927-.583.712-.794 1.741-.581 2.823.525 2.664 3.728 4.124 3.864 4.185a.758.758 0 0 0 .612 0c.136-.06 3.338-1.521 3.864-4.185.213-1.083.002-2.112-.581-2.824-.491-.602-1.196-.922-2.038-.926Zm1.148 3.459c-.297 1.503-1.993 2.567-2.698 2.95-.706-.383-2.402-1.446-2.698-2.95-.125-.631-.024-1.223.27-1.583.206-.251.495-.375.884-.376h.004c.58 0 .809.576.83.633.102.301.385.5.703.504a.729.729 0 0 0 .715-.496c.024-.066.252-.642.832-.642h.004c.39.002.68.125.885.376.293.36.394.952.269 1.584Z"/></svg>
